modules/themify-icons/icons/home.svg

<?xml version="1.0" encoding="utf-8"?>
<!-- Generated by IcoMoon.io -->
<!DOCTYPE svg PUBLIC "-//W3C//DTD SVG 1.1//EN" "http://www.w3.org/Graphics/SVG/1.1/DTD/svg11.dtd">
<svg version="1.1" xmlns="http://www.w3.org/2000/svg" xmlns:xlink="http://www.w3.org/1999/xlink" width="17" height="17" viewBox="0 0 17 17">
<g>
</g>
	<path d="M14 16h-3v-6h-5v6h-3v-9h-1v10h13v-10h-1v9zM7 16v-5h3v5h-3zM16.796 6.473l-0.592 0.807-7.704-5.66-7.704 5.658-0.592-0.806 8.296-6.092 8.296 6.093z" fill="#000000" />
</svg>

<svg xmlns="http://www.w3.org/2000/svg" width="17" height="17"><path d="M14 16h-3v-6H6v6H3V7H2v10h13V7h-1v9zm-7 0v-5h3v5H7zm9.796-9.527l-.592.807L8.5 1.62.796 7.278l-.592-.806L8.5.38l8.296 6.093z"/></svg>
